X:1
T:Rompi de l'empio cor
T:Rompi de l'empio cor
T:Girolamo Scotto
T:Source : Secondo Libro delle Muse a tre voci---Venetia---G.Scotto---1562. Editor : André Vierendeels (30/05/16).
T:Notes : Original clefs : C2, C4, F4 Editorial accidentals above the staff Original note values have been halved Square brackets indicate ligatures Text : Filippo Strozzi "Terzi toni" 
T:©
T:©
T:©
T:©
T:©
T:©
T:©
C:Girolamo Scotto
Z:©
%%score [ 1 2 3 ]
L:1/8
Q:1/4=96
M:2/2
K:C
V:1 treble nm="Alto" snm="A"
V:2 treble-8 nm="Tenor" snm="T"
V:3 bass nm="Bass" snm="B"
V:1
 z8 | z8 | z4 E4 | E2 E2 F2 F2 | E2 D2 D2 D2 | F4 E2 A2- | A2 G2 A2 E2 | G2 G2 A2 A2 | G4 E2 F2- | %9
w: ||Rom-|pi de l'em- pio|cor il du- ro|sco _ gli-|* o de- pon|gli sde- gni e|l'i- * *|
 FE E4 D2 | E4 z2 E2 | F2 F2 D2 D2 | E3 F G4- | G2 G2 E2 G2- | GF E4 D2 | E2 E2 E2 D2 | E2 G4 FE | %17
w: |re, hor|mai, don- na cru-|del, _ _|_ de- pon l'or-|* * go- gli-|o, nè ti rin-|cre- sca'u- di- *|
 D6 E2 | F2 C2 C2 C2 | F2 F2 E3 F | G2 E2 F2 C2 | D2 E2 F4 | E3 D E2 F2- | FE E4 DC | D4 E2 G2 | %25
w: |re com' io giont'|al mo- ri- *|re, com' io giont'|al mo- ri-|||* re, non|
 G2 G2 E4- | E2 E2 F4- | F2 F2 E2 E2- | EDEF G2 E2- | E2 D2 E2 G2- | G2 A3 G G2- | G2 F2 G2 D2 | %32
w: piu di te|_ d'A- mor|_ del ciel mi|_ _ _ _ _ do-|* gli- o, mi|_ do- * *|* gli- o. Ma|
 G2 G2 A4- | A2 A2 G2 D2 | A6 GF | E4 E4- | E2 DC B,4 | A,2 E2 E2 E2 | F2 F2 E3 F | G2 E4 A2- | %40
w: sol qual ci-|* gno'in tri- sti'ac-|cen- * *|ti chieg-|* * * gi-|o, che se mi'o-|dia- st'in vi- *||
"^#" A2 G2 A4- | A4 z4 | F4 E2 E2 | F2 z F E2 E2 | DEFG A2 A2- |"^#""^#" AG/F/ G2 A4 | z4 A4 | %47
w: * * ta,|_|non mi nie-|ghi so- spir al-|la _ _ _ par- ti-|* * * * ta.|Ha|
 A4 G2 G2- | G2 D4 G2 | F2 D2 A2 A2- | AG/F/ G2 A4 | z8 | z2 G4 G2 | G4 G2 A2- | A2 G2 F4 | E4 E4 | %56
w: fol- le do-|* ve son|co- me van- eg-|* * * gi- o?||Qui non|o- de ne|_ ri- spon-|de al-|
 E2 C2 D2 E2- | E2 F4 D2 | E6 E2- | EF G2 D3 C | B,4 A,2 F2- | F2 C4 F2 | E2 C2 F2 E2 | D2 F3 EFG | %64
w: tri che di Mu-|* gnon le|ri- v'e|_ _ l'on- * *|* de, al-|* tri che|di Mu- gnon le|ri- * * * *|
 A2 G2 ^F2 A2- |"^#" A2 G2 A4 | z2 E2 E2 E2 | E4 E2 E2 | F2 E2 F4 | E8 |] %70
w: v'e l'on- * *|* * de,|le ri- v'e|l'on- de, le|ri- v'e l'on-|de.|
V:2
 e4 e2 e2 | f2 f2 e2 B2 | B2 B2 c2 c2 | c4 A4 | A2 A2 _B4 | A2 d2 d2 c2 | B4 A2 c2 | B2 e2 c2 d2 | %8
w: Rom- pi de|l'em- pio cor, rom-|pi de l'em- pio|cor il|du- ro sco-|glio, il du- ro|sco- glio, de-|pon gli sde- gn'e|
 edcB c2 A2 | c2 B2 A4 | B2 c2 c2 B2 | A2 A2 B4 | c3 d e4- | e2 d2 c2 B2- | B2 c2 A4 | B4 c2 G2 | %16
w: l'i- * * * re, gli|sde'- gni'e l'i-|re, hor mai, don-|na cru- del,|_ _ _|* de- pon l'or-|go- gli- *|* o, ne|
 G2 G2 c2 c2 | B8 | A4 z2 A2 | A2 A2 c4- | c2 G2 A3 G | AB c3 B/A/ B2 | c4 z2 A2 | c2 c2 B4 | %24
w: ti rin- cre- sca'u-|di-|re com'|io giont' al|_ mo- ri- *||re, com'|io giont' al|
 A4 B4 | c2 G2 G2 G2 | A2 c2 A4- | A2 B2 c4- | c2 B4 c2- | c2 A2 B2 B2 | c6 B2 | A4 B4- | %32
w: mo- ri-|re, non piu di|te d'A- mor|_ del ciel|_ mi do-|* gli- o, mi|do- *|gli- o.|
 B4 z2 A2 | d6 B2 | c2 c2 A2 A2 | c6 c2 | B2 A4 G2 | A3 B c2 A2 | A2 A2 c2 c2 | B4 c4 | B4 A4 | %41
w: _ Ma|sol qual|ci- gno'in tri- sti'ac-|cen- ti|chieg- gi- *|* * o, che|se mi'o- dia- st'in|vi- *|* ta,|
 z2 d2 d2 d2 | A2 z G c3 B | cA d4 c2 | d2 d2 c2 A2 | B4 A4 | z4 d4 | c4 c4 | B6 B2 | A2 B2 c4 | %50
w: non mi nie-|ghi so- spir _|_ _ _ _|* al- la par-|ti- ta.|Ha|fol- le|do- ve|son co- me|
 d4 e2 f2- | fe e4 d2 | e2 e4 e2 | d4 e2 c2- | cd e3 d/c/ d2 | e2 A4 c2- | c2 A2 B2 c2 | %57
w: van- eg- *|* * * gi-|o? Qui non|o- de ne|_ ri- spon- * * *|de al- tri|_ che di Mu-|
 A3 G F2 G2- | G2 A2 B2 c2- | c2 B4 A2- |"^#" A2 G2 A4- | A8 | z2 A4 c2 | B2 A4 d2 | c3 B A2 c2 | %65
w: gnon _ _ _|_ _ le ri-|* v'e l'on-|* * de,|_|al- tri|che di Mu-|gnon le ri- v'e|
 B4 A4 | z2 c2 B2 c2 | B4 A2 A2 | A2 A2 A4 | A8 |] %70
w: l'on- de,|le ri- v'e|l'on- de, le|ri- v'e l'on-|de.|
V:3
 z8 | z4 E,4 | E,2 E,2 C,2 C,2 | A,,4 D,4 | A,,2 D,2 G,2 G,2 | F,2 D,2 A,4 | E,4 z2 A,,2 | %7
w: |Rom-|pi de l'em- pio|cor, de|l'em- pio cor il|du- ro sco-|glio, de-|
 E,2 E,2 F,2 F,2 | E,4 A,2 F,2 | A,2 G,2 F,4 | E,2 A,2 A,2 G,2 | F,2 D,2 G,4 | z2 C,2 C,2 C,2 | %13
w: pon gli sde- gn'e|l'i- re, gli|sde- gni'e l'i-|re, hor mai, don-|na cru- del,|de pon l'or-|
 G,4 A,2 E,2 | G,2 A,2 F,4 | E,3 D, C,2 B,,2 | C,8 | z2 G,2 G,2 G,2 | F,2 F,2 E,2 F,2 | %19
w: go- gli- o,|de- pon l'or-|go- * * gli-|o,|ne ti rin-|sca'u- di- * *|
 D,4 z2 C,2 | C,2 C,2 F,4- | F,2 E,2 D,4 | C,2 A,,2 C,2 D,2 | A,,4 E,4 | F,4 E,3 D, | C,8 | %26
w: re com'|io giont' al|_ mo- ri-|re, com' io giont'|al mo-|* ri- *||
 A,,4 z2 D,2 | D,2 D,2 C,2 A,,2 | E,6 E,2 | F,2 F,2 E,3 D, | C,2 A,,2 E,4 | z2 D,2 G,4- | %32
w: re, non|piu di te d'A-|mor del|cile mi do- *|* gli o.|Ma sol|
 G,2 E,2 F,2 F,2 | D,2 D,2 G,4 | F,6 E,D, | C,2 A,,3 B,,C,D, | E,2 A,,2 E,4 | A,,6 A,,2 | %38
w: _ qual co- gn'in|tri- sti'ac- cen-||ti chieg- * * *|* * gi-|o, che|
 D,2 D,2 C,2 C,2 | E,3 D, C,2 A,,2 | E,4 A,,2 D,2 | D,2 D,2 G,2 z G, | F,2 F,2 A,3 G, | %43
w: se mi'o dia- st'in|vi- * * *|* ta, non|mi nie- ghi so-|spir al la _|
 F,2 D,2 A,4 | D,3 E, F,4 | E,4 A,,4 | z4 D,4 | F,4 C,4 | G,6 E,2 | F,2 G,2 F,4 |"^b" B,4 A,2 D,2 | %51
w: _ par- ti-||* ta.|Ha|fol- le|do- ve|son co- me|van- eg- *|
 A,2 G,2 F,4 | E,2 C,4 C,2 | G,4 C,2 F,2- | F,2 C,2 D,4 | A,,8- | A,,4 z2 A,,2- | A,,2 D,4 B,,2 | %58
w: * * gi-|o? Qui non|o- de ne|_ ri- spon-|de|_ al-|* tri che|
 C,2 A,,2 E,2 A,,B,, | C,D,E,F, G,2 D,2 | E,4 A,,2 D,2- | D,2 F,4 D,2 | E,2 F,2 D,2 C,2 | %63
w: di Mu- gnon le _|ri- * * * * v'e|l'on- de, al-|* trei che|di Mu- gnon le|
 G,2 F,2 D,3 E, | F,2 C,2 D,2 A,,2 | E,4 A,,4 | z2 A,,2 E,2 A,,2 | E,4 A,,2 A,,2 | D,2 ^C,2 D,4 | %69
w: ri- v'e l'on- *|de, le ri- v'e|l'on- de,|le ri- v'e|l'on- de, le|ri- v'e l'on-|
 A,,8 |] %70
w: de.|

